omega/mobile/images/sports/amfb.svg

<svg height="7.11in" viewBox="0 0 711 711" width="7.11in" xmlns="http://www.w3.org/2000/svg"><path d="m491 51.91s21 1.26 21 1.26c35.74 3.47 78.15 16.46 105 41 13.13 12 24.99 32.32 31.6 48.83 9.66 24.16 14.77 49.16 17.36 75v9s1.04 14 1.04 14c-59.37-25.18-116.63-64.24-152.31-119-16.48-25.3-23.29-42.81-32.69-71 0 0 9 .91 9 .91zm-440.55 344.09c6.14-30.7 16.68-62.41 29.41-91 43.7-98.15 123.86-174.86 222.14-217.28 32.92-14.21 62.91-22.81 98-29.72 0 0 26-4.14 26-4.14 2.1.02 8.09-.9 9.7 0 2.46.81 3.21 4.81 3.88 7.14 0 0 6.42 20 6.42 20 7.65 22.44 21.4 48.54 34.88 68 34.09 49.19 80.13 86.93 133.12 114.26 13.06 6.73 35.26 18.04 49 21.74-.57 26.19-13.64 75.01-22.95 100-42 112.66-125.61 196.49-237.05 241.2-31.55 12.66-64.46 22.07-98 27.72 0 0-24 3.38-24 3.38-2.71.15-8.14 1.33-10.57 0-2.44-1.07-3.3-5.83-4.01-8.3 0 0-7.23-22-7.23-22-10.85-28.1-21.31-47.47-38.9-72-40.56-56.57-109.72-103.26-175.29-126 0 0 5.45-33 5.45-33zm380.55-197c-3.55-3.55-8.16-8.83-13-10.33-2.85-.91-9.17-.93-12 0-3.38 1.17-6.46 3.94-9 6.37-6.19 5.92-11.75 11.73-10.14 20.96 1.6 9.23 18.21 23.07 25.14 30 2.13 2.13 8.95 8.08 8.96 10.96 0 2.34-5.41 6.92-7.16 8.77 0 0-23.8 23.98-23.8 23.98-5.18 3.58-11.02-4.52-14.72-7.83-5.84-5.22-21.24-21.91-26.28-24.43-2.81-1.4-5.92-1.55-9-1.41-9.08.41-20.04 10.67-23.03 18.96-.92 2.55-1.07 5.31-.93 8 .41 7.83 5.76 11.8 10.96 17 0 0 27 27 27 27-6.16 4.41-16.18 15.18-22 21-2.03 2.03-7.15 7.96-10 7.96-3.14 0-11.5-9.46-14-11.96-9.78-9.78-22.36-27.5-38-17.15-2.74 1.81-6.65 5.69-8.91 8.15-4.79 5.24-6.42 8.88-6.05 16 .47 8.83 6.21 12.39 11.96 18.01 0 0 11 10.99 11 10.99 2.15 2.15 8.96 8.07 8.96 11 0 2.42-3.36 5.37-4.96 7 0 0-16 15.89-16 15.89-6.68 5.6-11.09-2.3-15.88-7.04-4.82-4.77-21.86-22.27-26.12-24.4-2.81-1.4-5.92-1.55-9-1.41-9.08.41-20.04 10.67-23.03 18.96-.92 2.55-1.07 5.31-.93 8 .41 7.83 5.76 11.8 10.96 17 0 0 27 27 27 27-7.68 5.5-23.44 20.16-23.96 30-.15 2.98.03 6.23 1.19 9 3.91 9.37 16.19 19.13 26.77 17.82 8.31-1.04 15.24-10.08 21-15.82 2.07-2.06 5.74-6.66 9-5.8 2.22.58 7.18 5.98 9 7.8 5.54 5.54 19.08 21.02 26 22.61 10.01 2.3 15.29-1.9 22-8.61 6.61-6.61 11.33-12.12 7.89-22-2.12-6.11-7.42-10.53-11.89-15 0 0-21-21-21-21s28-27 28-27c4.51 6.3 17.84 18.84 24 25 4.77 4.77 9.23 10.28 16 12.07 9.15 2.41 15.03-3.1 21-9.07 5.81-5.81 10.55-11.1 8.47-20-1.61-6.9-7.65-12.18-12.47-17 0 0-25-24-25-24s18-17 18-17 12-14 12-14c9.49 4.49 25.04 25.66 34 30.99 2.77 1.66 4.85 1.92 8 1.99 9.32.23 11.63-2.61 18-8.98 4.94-4.95 8.92-8.51 8.92-16 0-10.82-10.83-18.91-17.92-26-2.7-2.7-13.96-12.79-13.96-16 0-2.73 5.06-7.1 6.96-9 0 0 22-21.96 22-21.96 5.85-5.35 6.68-3.36 15 4.96 0 0 16 16 16 16 3.47 3.45 7.03 7.47 12 8.61 3.09.71 9.07.57 12-.62 3.49-1.41 6.37-4.38 9-6.99 6.76-6.7 12.21-12.93 8.75-23-2.05-5.98-7.38-10.62-11.75-15 0 0-23-23-23-23 6.12-4.38 13.32-11.03 13.9-19 .22-3-.18-6.27-1.47-9-3.28-6.94-14.55-17.54-22.43-17.96-11.79-.62-16.32 6.28-24 13.96-4.51-6.29-17.84-18.84-24-25zm-358 286.81c54.83 27.41 104.76 68.4 133.78 123.19 6.67 12.6 18.1 37.26 20.22 51 0 0-10-1.04-10-1.04h-10c-41.3-4.06-88.49-14.97-118.72-45.24-25.34-25.39-38.59-69.64-42.11-104.72 0 0-1.26-20-1.26-20s-.91-12-.91-12v-4s29 12.81 29 12.81z"/></svg>

<?xml version="1.0" encoding="UTF-8" standalone="no"?>
<!DOCTYPE svg PUBLIC "-//W3C//DTD SVG 20010904//EN"
              "http://www.w3.org/TR/2001/REC-SVG-20010904/DTD/svg10.dtd">

<svg xmlns="http://www.w3.org/2000/svg"
     width="7.11in" height="7.11in"
     viewBox="0 0 711 711">
  <path id="Selection"
        fill="black" 
        d="M 491.00,51.91
           C 491.00,51.91 512.00,53.17 512.00,53.17
             547.74,56.64 590.15,69.63 617.00,94.17
             630.13,106.17 641.99,126.49 648.60,143.00
             658.26,167.16 663.37,192.16 665.96,218.00
             665.96,218.00 665.96,227.00 665.96,227.00
             665.96,227.00 667.00,241.00 667.00,241.00
             607.63,215.82 550.37,176.76 514.69,122.00
             498.21,96.70 491.40,79.19 482.00,51.00
             482.00,51.00 491.00,51.91 491.00,51.91 Z
           M 50.45,396.00
           C 56.59,365.30 67.13,333.59 79.86,305.00
             123.56,206.85 203.72,130.14 302.00,87.72
             334.92,73.51 364.91,64.91 400.00,58.00
             400.00,58.00 426.00,53.86 426.00,53.86
             428.10,53.88 434.09,52.96 435.70,53.86
             438.16,54.67 438.91,58.67 439.58,61.00
             439.58,61.00 446.00,81.00 446.00,81.00
             453.65,103.44 467.40,129.54 480.88,149.00
             514.97,198.19 561.01,235.93 614.00,263.26
             627.06,269.99 649.26,281.30 663.00,285.00
             662.43,311.19 649.36,360.01 640.05,385.00
             598.05,497.66 514.44,581.49 403.00,626.20
             371.45,638.86 338.54,648.27 305.00,653.92
             305.00,653.92 281.00,657.30 281.00,657.30
             278.29,657.45 272.86,658.63 270.43,657.30
             267.99,656.23 267.13,651.47 266.42,649.00
             266.42,649.00 259.19,627.00 259.19,627.00
             248.34,598.90 237.88,579.53 220.29,555.00
             179.73,498.43 110.57,451.74 45.00,429.00
             45.00,429.00 50.45,396.00 50.45,396.00 Z
           M 431.00,199.00
           C 427.45,195.45 422.84,190.17 418.00,188.67
             415.15,187.76 408.83,187.74 406.00,188.67
             402.62,189.84 399.54,192.61 397.00,195.04
             390.81,200.96 385.25,206.77 386.86,216.00
             388.46,225.23 405.07,239.07 412.00,246.00
             414.13,248.13 420.95,254.08 420.96,256.96
             420.96,259.30 415.55,263.88 413.80,265.73
             413.80,265.73 390.00,289.71 390.00,289.71
             384.82,293.29 378.98,285.19 375.28,281.88
             369.44,276.66 354.04,259.97 349.00,257.45
             346.19,256.05 343.08,255.90 340.00,256.04
             330.92,256.45 319.96,266.71 316.97,275.00
             316.05,277.55 315.90,280.31 316.04,283.00
             316.45,290.83 321.80,294.80 327.00,300.00
             327.00,300.00 354.00,327.00 354.00,327.00
             347.84,331.41 337.82,342.18 332.00,348.00
             329.97,350.03 324.85,355.96 322.00,355.96
             318.86,355.96 310.50,346.50 308.00,344.00
             298.22,334.22 285.64,316.50 270.00,326.85
             267.26,328.66 263.35,332.54 261.09,335.00
             256.30,340.24 254.67,343.88 255.04,351.00
             255.51,359.83 261.25,363.39 267.00,369.01
             267.00,369.01 278.00,380.00 278.00,380.00
             280.15,382.15 286.96,388.07 286.96,391.00
             286.96,393.42 283.60,396.37 282.00,398.00
             282.00,398.00 266.00,413.89 266.00,413.89
             259.32,419.49 254.91,411.59 250.12,406.85
             245.30,402.08 228.26,384.58 224.00,382.45
             221.19,381.05 218.08,380.90 215.00,381.04
             205.92,381.45 194.96,391.71 191.97,400.00
             191.05,402.55 190.90,405.31 191.04,408.00
             191.45,415.83 196.80,419.80 202.00,425.00
             202.00,425.00 229.00,452.00 229.00,452.00
             221.32,457.50 205.56,472.16 205.04,482.00
             204.89,484.98 205.07,488.23 206.23,491.00
             210.14,500.37 222.42,510.13 233.00,508.82
             241.31,507.78 248.24,498.74 254.00,493.00
             256.07,490.94 259.74,486.34 263.00,487.20
             265.22,487.78 270.18,493.18 272.00,495.00
             277.54,500.54 291.08,516.02 298.00,517.61
             308.01,519.91 313.29,515.71 320.00,509.00
             326.61,502.39 331.33,496.88 327.89,487.00
             325.77,480.89 320.47,476.47 316.00,472.00
             316.00,472.00 295.00,451.00 295.00,451.00
             295.00,451.00 323.00,424.00 323.00,424.00
             327.51,430.30 340.84,442.84 347.00,449.00
             351.77,453.77 356.23,459.28 363.00,461.07
             372.15,463.48 378.03,457.97 384.00,452.00
             389.81,446.19 394.55,440.90 392.47,432.00
             390.86,425.10 384.82,419.82 380.00,415.00
             380.00,415.00 355.00,391.00 355.00,391.00
             355.00,391.00 373.00,374.00 373.00,374.00
             373.00,374.00 385.00,360.00 385.00,360.00
             394.49,364.49 410.04,385.66 419.00,390.99
             421.77,392.65 423.85,392.91 427.00,392.98
             436.32,393.21 438.63,390.37 445.00,384.00
             449.94,379.05 453.92,375.49 453.92,368.00
             453.92,357.18 443.09,349.09 436.00,342.00
             433.30,339.30 422.04,329.21 422.04,326.00
             422.04,323.27 427.10,318.90 429.00,317.00
             429.00,317.00 451.00,295.04 451.00,295.04
             456.85,289.69 457.68,291.68 466.00,300.00
             466.00,300.00 482.00,316.00 482.00,316.00
             485.47,319.45 489.03,323.47 494.00,324.61
             497.09,325.32 503.07,325.18 506.00,323.99
             509.49,322.58 512.37,319.61 515.00,317.00
             521.76,310.30 527.21,304.07 523.75,294.00
             521.70,288.02 516.37,283.38 512.00,279.00
             512.00,279.00 489.00,256.00 489.00,256.00
             495.12,251.62 502.32,244.97 502.90,237.00
             503.12,234.00 502.72,230.73 501.43,228.00
             498.15,221.06 486.88,210.46 479.00,210.04
             467.21,209.42 462.68,216.32 455.00,224.00
             450.49,217.71 437.16,205.16 431.00,199.00 Z
           M 73.00,485.81
           C 127.83,513.22 177.76,554.21 206.78,609.00
             213.45,621.60 224.88,646.26 227.00,660.00
             227.00,660.00 217.00,658.96 217.00,658.96
             217.00,658.96 207.00,658.96 207.00,658.96
             165.70,654.90 118.51,643.99 88.28,613.72
             62.94,588.33 49.69,544.08 46.17,509.00
             46.17,509.00 44.91,489.00 44.91,489.00
             44.91,489.00 44.00,477.00 44.00,477.00
             44.00,477.00 44.00,473.00 44.00,473.00
             44.00,473.00 73.00,485.81 73.00,485.81 Z" />
</svg>
